icon/fa/church.svg

<svg xmlns="http://www.w3.org/2000/svg" viewBox="0 0 640 512"><!--! Font Awesome Free 6.1.2 by @fontawesome - https://fontawesome.com License - https://fontawesome.com/license/free (Icons: CC BY 4.0, Fonts: SIL OFL 1.1, Code: MIT License) Copyright 2022 Fonticons, Inc.--><path d="M344 48h32c13.3 0 24 10.75 24 24s-10.7 24-24 24h-32v46.4L456.7 210c14.5 8.7 23.3 24.3 23.3 41.2V512h-96v-96c0-35.3-28.7-64-64-64s-64 28.7-64 64v96h-96V251.2c0-16.9 8.8-32.5 23.3-41.2L296 142.4V96h-32c-13.3 0-24-10.75-24-24s10.7-24 24-24h32V24c0-13.25 10.7-24 24-24s24 10.75 24 24v24zM24.87 330.3 128 273.6V512H48c-26.51 0-48-21.5-48-48v-91.6c0-17.5 9.53-33.6 24.87-42.1zM592 512h-80V273.6l103.1 56.7c15.4 8.5 24.9 24.6 24.9 42.1V464c0 26.5-21.5 48-48 48z"/></svg>

<svg xmlns="http://www.w3.org/2000/svg" viewBox="0 0 640 512" height="1em" width="1em">
<!--! Font Awesome Free 6.1.2 by @fontawesome - https://fontawesome.com License - https://fontawesome.com/license/free (Icons: CC BY 4.0, Fonts: SIL OFL 1.1, Code: MIT License) Copyright 2022 Fonticons, Inc.-->
  <path d="M344 48H376C389.3 48 400 58.75 400 72C400 85.25 389.3 96 376 96H344V142.4L456.7 210C471.2 218.7 480 234.3 480 251.2V512H384V416C384 380.7 355.3 352 320 352C284.7 352 256 380.7 256 416V512H160V251.2C160 234.3 168.8 218.7 183.3 210L296 142.4V96H264C250.7 96 240 85.25 240 72C240 58.75 250.7 48 264 48H296V24C296 10.75 306.7 0 320 0C333.3 0 344 10.75 344 24V48zM24.87 330.3L128 273.6V512H48C21.49 512 0 490.5 0 464V372.4C0 354.9 9.53 338.8 24.87 330.3V330.3zM592 512H512V273.6L615.1 330.3C630.5 338.8 640 354.9 640 372.4V464C640 490.5 618.5 512 592 512V512z"/>
</svg>
